docs/.gitbook/assets/icon-heartbeat-16@dark.svg

<svg width="32" height="32" viewBox="0 0 16 16" fill="none" xmlns="http://www.w3.org/2000/svg">
<rect x="0" y="0" width="16" height="16" fill="#181c1f"/>
<path fill-rule="evenodd" clip-rule="evenodd" d="M6.08072 1.00438C6.4169 1.04078 6.68716 1.29764 6.74058 1.63154L8.27453 11.2187L10.2928 5.50041C10.39 5.22488 10.6384 5.03091 10.9293 5.00337C11.2202 4.97583 11.5006 5.11974 11.6478 5.37212L13.1808 8.00003H14.25C14.6642 8.00003 15 8.33581 15 8.75003C15 9.16424 14.6642 9.50003 14.25 9.50003H12.75C12.4832 9.50003 12.2366 9.35834 12.1022 9.12793L11.1682 7.52688L8.70724 14.4996C8.59307 14.8231 8.27399 15.0279 7.93235 14.997C7.59072 14.966 7.31362 14.7072 7.25942 14.3685L5.69348 4.58139L3.94806 9.02427C3.83531 9.31128 3.55837 9.50003 3.25 9.50003H1.75C1.33579 9.50003 1 9.16424 1 8.75003C1 8.33581 1.33579 8.00003 1.75 8.00003H2.73884L5.30194 1.47579C5.42558 1.16106 5.74454 0.96799 6.08072 1.00438Z" fill="#fff"/>
</svg>

<svg xmlns="http://www.w3.org/2000/svg" width="32" height="32" fill="none" viewBox="0 0 16 16"><path fill="#181c1f" d="M0 0h16v16H0z"/><path fill="#fff" fill-rule="evenodd" d="M6.08 1.004a.75.75 0 0 1 .66.628l1.535 9.587L10.293 5.5a.75.75 0 0 1 1.355-.128L13.18 8h1.069a.75.75 0 0 1 0 1.5h-1.5a.75.75 0 0 1-.648-.372l-.934-1.601-2.46 6.973a.75.75 0 0 1-1.449-.132L5.693 4.581 3.948 9.024a.75.75 0 0 1-.698.476h-1.5a.75.75 0 0 1 0-1.5h.989l2.563-6.524a.75.75 0 0 1 .779-.472" clip-rule="evenodd"/></svg>
